libs/icons/src/svg/phone-toolbar.svg

<svg width="16" height="16" viewBox="0 0 16 16" fill="none" xmlns="http://www.w3.org/2000/svg">
<path fill-rule="evenodd" clip-rule="evenodd" d="M3.5286 1.5286C3.65362 1.40357 3.82319 1.33333 4 1.33333H12C12.1768 1.33333 12.3464 1.40357 12.4714 1.5286C12.5964 1.65362 12.6667 1.82319 12.6667 2V14C12.6667 14.1768 12.5964 14.3464 12.4714 14.4714C12.3464 14.5964 12.1768 14.6667 12 14.6667H4C3.82319 14.6667 3.65362 14.5964 3.5286 14.4714C3.40357 14.3464 3.33333 14.1768 3.33333 14V2C3.33333 1.82319 3.40357 1.65362 3.5286 1.5286ZM4 0C3.46957 0 2.96086 0.210714 2.58579 0.585786C2.21071 0.960859 2 1.46957 2 2V14C2 14.5304 2.21071 15.0391 2.58579 15.4142C2.96086 15.7893 3.46957 16 4 16H12C12.5304 16 13.0391 15.7893 13.4142 15.4142C13.7893 15.0391 14 14.5304 14 14V2C14 1.46957 13.7893 0.960859 13.4142 0.585786C13.0391 0.210714 12.5304 0 12 0H4ZM12 12H4V13.3333H12V12Z" fill="#202327"/>
</svg>

<svg xmlns="http://www.w3.org/2000/svg" viewBox="0 0 16 16" class="sageicon"><path fill-rule="evenodd" d="M3.529 1.529A.667.667 0 0 1 4 1.333h8a.667.667 0 0 1 .667.667v12a.667.667 0 0 1-.667.667H4A.667.667 0 0 1 3.333 14V2c0-.177.07-.346.196-.471ZM4 0a2 2 0 0 0-2 2v12a2 2 0 0 0 2 2h8a2 2 0 0 0 2-2V2a2 2 0 0 0-2-2H4Zm8 12H4v1.333h8V12Z"/></svg>
